svg/candelabra_fire.svg

<svg xmlns="http://www.w3.org/2000/svg" viewBox="0 0 24 24"><path d="M18 7c.83 0 1.5-.67 1.5-1.5S18.83 3 18 3s-1.5 1.67-1.5 2.5S17.17 7 18 7m0-1.75c.28 0 .5.22.5.5s-.22.5-.5.5-.5-.22-.5-.5.22-.5.5-.5M12 6c.83 0 1.5-.67 1.5-1.5S12.83 2 12 2s-1.5 1.67-1.5 2.5S11.17 6 12 6m0-1.75c.28 0 .5.22.5.5s-.22.5-.5.5-.5-.22-.5-.5.22-.5.5-.5M6 7c.83 0 1.5-.67 1.5-1.5S6.83 3 6 3 4.5 4.67 4.5 5.5 5.17 7 6 7m0-1.75c.28 0 .5.22.5.5s-.22.5-.5.5-.5-.22-.5-.5.22-.5.5-.5M20.5 11c0 .55-.45 1-1 1H19v2c0 1.11-.89 2-2 2h-4v4h1a2 2 0 0 1 2 2H8c0-1.1.9-2 2-2h1v-4H7a2 2 0 0 1-2-2v-2h-.5c-.55 0-1-.45-1-1s.45-1 1-1V9c0-.55.45-1 1-1h1c.55 0 1 .45 1 1v1c.55 0 1 .45 1 1s-.45 1-1 1H7v2h4v-2h-.5c-.55 0-1-.45-1-1s.45-1 1-1V8c0-.55.45-1 1-1h1c.55 0 1 .45 1 1v2c.55 0 1 .45 1 1s-.45 1-1 1H13v2h4v-2h-.5c-.55 0-1-.45-1-1s.45-1 1-1V9c0-.55.45-1 1-1h1c.55 0 1 .45 1 1v1c.55 0 1 .45 1 1"/></svg>

<svg xmlns="http://www.w3.org/2000/svg" id="mdi-candelabra-fire" viewBox="0 0 24 24"><path d="M18 7C18.83 7 19.5 6.33 19.5 5.5C19.5 4.67 18.83 3 18 3S16.5 4.67 16.5 5.5C16.5 6.33 17.17 7 18 7M18 5.25C18.28 5.25 18.5 5.47 18.5 5.75S18.28 6.25 18 6.25 17.5 6.03 17.5 5.75 17.72 5.25 18 5.25M12 6C12.83 6 13.5 5.33 13.5 4.5C13.5 3.67 12.83 2 12 2S10.5 3.67 10.5 4.5C10.5 5.33 11.17 6 12 6M12 4.25C12.28 4.25 12.5 4.47 12.5 4.75S12.28 5.25 12 5.25 11.5 5.03 11.5 4.75 11.72 4.25 12 4.25M6 7C6.83 7 7.5 6.33 7.5 5.5C7.5 4.67 6.83 3 6 3S4.5 4.67 4.5 5.5C4.5 6.33 5.17 7 6 7M6 5.25C6.28 5.25 6.5 5.47 6.5 5.75S6.28 6.25 6 6.25 5.5 6.03 5.5 5.75 5.72 5.25 6 5.25M20.5 11C20.5 11.55 20.05 12 19.5 12H19V14C19 15.11 18.11 16 17 16H13V20H14C15.11 20 16 20.9 16 22H8C8 20.9 8.9 20 10 20H11V16H7C5.9 16 5 15.11 5 14V12H4.5C3.95 12 3.5 11.55 3.5 11S3.95 10 4.5 10V9C4.5 8.45 4.95 8 5.5 8H6.5C7.05 8 7.5 8.45 7.5 9V10C8.05 10 8.5 10.45 8.5 11S8.05 12 7.5 12H7V14H11V12H10.5C9.95 12 9.5 11.55 9.5 11S9.95 10 10.5 10V8C10.5 7.45 10.95 7 11.5 7H12.5C13.05 7 13.5 7.45 13.5 8V10C14.05 10 14.5 10.45 14.5 11S14.05 12 13.5 12H13V14H17V12H16.5C15.95 12 15.5 11.55 15.5 11S15.95 10 16.5 10V9C16.5 8.45 16.95 8 17.5 8H18.5C19.05 8 19.5 8.45 19.5 9V10C20.05 10 20.5 10.45 20.5 11Z" /></svg>
